X:184
T: Die zwei armen Waislein
N: Q0117B
O: Suedosteuropa, Jugoslawien, Gottschee, Verdreng
N: Verselbstaendigte Oberstimme? Zweite und dritte Zeile = Refrain.
R: Ballade, Waise, boese Stiefmutter, Klage am Grab, Geist
M: 3/4
L: 1/8
K: G
B2 | B4AB | c4d2 | e2e2d2 | B4
ce | d4c2 | B4BB | c2B2
ce | d4c2 | B4BB | c2B2

